X:7720
T:Tune that goes with Jump at the Sun
O:England
M:6/8
L:1/8
S:Eurojam
R:Jig
K:D
dcd GBd|=cBc ABc|dcd GBd|=cBc A3|dcd GBd|=cBc ABc|AB=c ed^c|d6:|:K:G B2B
B2B|A2G FGA|B2B B2B|cBc ABc|B2B B2B|A2G FGA|c3 cde|A6:|


